X: 25676
T: Martin Wynne's
R: reel
M: 4/4
K: Dmajor
AD~D2 DFBF|ABdf (3efe dB|AD~D2 DFAF|GFEd BcdB|
AD~D2 DFBF|ABdf fedB|Ad~d2 BABd|ABdg fgeg||
fedB ABdg|fede fa~a2|fedB AF~F2|GFEd Bcde|
fedB ABde|fede faab|afdf eBdB|ABde fedB||

